src/images/check.svg

<svg width="73" height="47" viewBox="0 0 73 47" fill="none" xmlns="http://www.w3.org/2000/svg">
<path fill-rule="evenodd" clip-rule="evenodd" d="M36 34C41.5228 34 46 29.5228 46 24C46 18.4772 41.5228 14 36 14C30.4772 14 26 18.4772 26 24C26 29.5228 30.4772 34 36 34Z" fill="#0C101E"/>
<path fill-rule="evenodd" clip-rule="evenodd" d="M0 23.5C0 21.821 16.5905 0 36.5 0C56.4095 0 73 21.8202 73 23.5C73 25.179 56.4087 47 36.5 47C16.5905 47 0 25.1773 0 23.5ZM19.9095 23.5C19.9095 32.7713 27.3344 40.2849 36.5 40.2849C45.6647 40.2849 53.0905 32.7713 53.0905 23.5C53.0905 14.2262 45.6647 6.71511 36.5 6.71511C27.3344 6.71511 19.9095 14.2262 19.9095 23.5Z" fill="#0C101E"/>
</svg>

<svg width="73" height="47" viewBox="0 0 73 47" fill="none" xmlns="http://www.w3.org/2000/svg"><path fill-rule="evenodd" clip-rule="evenodd" d="M36 34c5.523 0 10-4.477 10-10s-4.477-10-10-10-10 4.477-10 10 4.477 10 10 10z" fill="currentColor"/><path fill-rule="evenodd" clip-rule="evenodd" d="M0 23.5C0 21.821 16.59 0 36.5 0S73 21.82 73 23.5C73 25.179 56.409 47 36.5 47 16.59 47 0 25.177 0 23.5zm19.91 0c0 9.271 7.424 16.785 16.59 16.785 9.165 0 16.59-7.514 16.59-16.785 0-9.274-7.425-16.785-16.59-16.785-9.166 0-16.59 7.511-16.59 16.785z" fill="currentColor"/></svg>
